app/src/main/assets/symbols/osmc/horse.svg

<?xml version="1.0" encoding="UTF-8" standalone="no"?>
<svg
   xmlns:dc="http://purl.org/dc/elements/1.1/"
   xmlns:cc="http://creativecommons.org/ns#"
   xmlns:rdf="http://www.w3.org/1999/02/22-rdf-syntax-ns#"
   xmlns:svg="http://www.w3.org/2000/svg"
   xmlns="http://www.w3.org/2000/svg"
   xmlns:sodipodi="http://sodipodi.sourceforge.net/DTD/sodipodi-0.dtd"
   xmlns:inkscape="http://www.inkscape.org/namespaces/inkscape"
   viewBox="0 0 32 32"
   version="1.1"
   id="svg4158"
   height="32"
   width="32"
   sodipodi:docname="horse.svg"
   inkscape:version="0.92.1 r15371">
  <sodipodi:namedview
     pagecolor="#ffffff"
     bordercolor="#666666"
     borderopacity="1"
     objecttolerance="10"
     gridtolerance="10"
     guidetolerance="10"
     inkscape:pageopacity="0"
     inkscape:pageshadow="2"
     inkscape:window-width="2560"
     inkscape:window-height="1016"
     id="namedview4523"
     showgrid="false"
     inkscape:zoom="25.71875"
     inkscape:cx="16"
     inkscape:cy="16"
     inkscape:window-x="0"
     inkscape:window-y="27"
     inkscape:window-maximized="1"
     inkscape:current-layer="svg4158" />
  <defs
     id="defs4160" />
  <metadata
     id="metadata4163">
    <rdf:RDF>
      <cc:Work
         rdf:about="">
        <dc:format>image/svg+xml</dc:format>
        <dc:type
           rdf:resource="http://purl.org/dc/dcmitype/StillImage" />
        <dc:title />
      </cc:Work>
    </rdf:RDF>
  </metadata>
  <g
     id="layer1"
     transform="matrix(0.9,0,0,0.9,1.6,1.5999797)">
    <path
       d="M 22.727562,12.673539 20.061998,9.732228 17.396435,7.6181607 c -0.22979,-0.8272435 -1.60853,-2.3438574 -1.60853,-2.3438574 -0.68937,-1.8842776 -1.60853,-2.0681096 -1.60853,-2.0681096 l 0.04596,0.413622 c -0.04596,0.3676638 -0.137874,1.1949076 -0.22979,2.0681095 L 12.387013,3.8036476 C 11.881476,2.195118 11.605727,3.1602358 11.605727,3.1602358 c -0.781285,0.9191597 0.09192,3.7685555 0.09192,3.7685555 L 11.421895,7.2504971 C 10.272947,7.7560348 8.9861234,9.4564803 8.9861234,9.4564803 L 10.364863,9.1807323 8.0669636,12.168001 c -4.1362188,5.239212 -6.5719922,6.066455 -6.5719922,6.066455 -0.82724383,0.45958 -0.3676639,2.343858 -0.3676639,2.343858 -0.22979006,1.14895 0.5055378,2.297899 0.5055378,2.297899 l 1.7923617,0.643412 c 0,0 1.8383194,-2.022152 2.895353,-1.884277 l -2.895353,1.884277 c 2.0681093,0.91916 3.4468489,-1.286823 3.4468489,-1.286823 0.4136219,-0.275749 2.6655634,-0.229791 2.6655634,-0.229791 L 12.800637,21.12981 c 1.516612,0.413621 3.906428,-0.781286 3.906428,-0.781286 L 18.683259,29.1265 31,22.554508 Z M 3.3332907,21.313642 c 0,0 -0.8272438,0.781286 -1.3327816,0.04596 0,0 -0.137874,-2.895352 1.1949077,-2.573647 0,0 1.2868237,1.286824 0.1378739,2.52769 z m 9.4673443,-7.904775 c 0,0 -0.735327,0.229789 -1.240865,-0.781286 0,0 0.827244,-1.516614 2.06811,0 0,0 -0.321706,0.735328 -0.827245,0.781286 z"
       id="path4412"
       inkscape:connector-curvature="0" />
  </g>
</svg>

<?xml version="1.0" encoding="UTF-8"?>
<svg id="svg4158" width="32" height="32" version="1.1" viewBox="0 0 32 32" xmlns="http://www.w3.org/2000/svg" xmlns:cc="http://creativecommons.org/ns#" xmlns:dc="http://purl.org/dc/elements/1.1/" xmlns:rdf="http://www.w3.org/1999/02/22-rdf-syntax-ns#">
 <metadata id="metadata4163">
  <rdf:RDF>
   <cc:Work rdf:about="">
    <dc:format>image/svg+xml</dc:format>
    <dc:type rdf:resource="http://purl.org/dc/dcmitype/StillImage"/>
    <dc:title/>
   </cc:Work>
  </rdf:RDF>
 </metadata>
 <g id="layer1" transform="matrix(.9 0 0 .9 1.6 1.6)">
  <path id="path4412" d="m22.728 12.674-2.6656-2.9413-2.6656-2.1141c-0.22979-0.82724-1.6085-2.3439-1.6085-2.3439-0.68937-1.8843-1.6085-2.0681-1.6085-2.0681l0.04596 0.41362c-0.04596 0.36766-0.13787 1.1949-0.22979 2.0681l-1.6085-1.8843c-0.50554-1.6085-0.78129-0.64341-0.78129-0.64341-0.78128 0.91916 0.09192 3.7686 0.09192 3.7686l-0.27575 0.32171c-1.1489 0.50554-2.4358 2.206-2.4358 2.206l1.3787-0.27575-2.2979 2.9873c-4.1362 5.2392-6.572 6.0665-6.572 6.0665-0.82724 0.45958-0.36766 2.3439-0.36766 2.3439-0.22979 1.149 0.50554 2.2979 0.50554 2.2979l1.7924 0.64341s1.8383-2.0222 2.8954-1.8843l-2.8954 1.8843c2.0681 0.91916 3.4468-1.2868 3.4468-1.2868 0.41362-0.27575 2.6656-0.22979 2.6656-0.22979l3.263-0.8732c1.5166 0.41362 3.9064-0.78129 3.9064-0.78129l1.9762 8.778 12.317-6.572zm-19.394 8.6401s-0.82724 0.78129-1.3328 0.04596c0 0-0.13787-2.8954 1.1949-2.5736 0 0 1.2868 1.2868 0.13787 2.5277zm9.4673-7.9048s-0.73533 0.22979-1.2409-0.78129c0 0 0.82724-1.5166 2.0681 0 0 0-0.32171 0.73533-0.82724 0.78129z"/>
 </g>
</svg>
